**kern
*staff1
!!pagebreak:original
*I"P1
=1-
*clefG2
*k[f#c#g#d#]
*M3/4
4g#/
2a/
=2
4g#/
4f#/
4e/
=3
[4b\
8b/L]
16a/L
16b/JJ
16cc#\LL
[16b\J
8b\J_
=4
2b\_
8b\L]
[8b\J
=5
4b\]
4cc#\
4b\
=6
[2g#/
16g#/LL]
16f#/
16e/
16f#/JJ
=7
16g#/LL
[16f#/J
8f#/J_
4f#/]
=
*-
